svg/toaster_off.svg

<svg xmlns="http://www.w3.org/2000/svg" viewBox="0 0 24 24"><path d="M20.8 22.7 18.1 20H3v-7H2v-2h1c0-1.1.9-2 2-2h2.1l-6-6 1.3-1.3 19.7 19.7zm-5.5-10.6c.3-.6 1-1.1 1.7-1.1 1.1 0 2 .9 2 2 0 .8-.4 1.4-1.1 1.7l3.1 3.1V13h1v-2h-1c0-1.1-.9-2-2-2h-6.8zM18 8c-.4-2.2-2.9-4-6-4-1.4 0-2.8.4-3.8 1l3 3z"/></svg>

<?xml version="1.0" encoding="UTF-8"?><!DOCTYPE svg PUBLIC "-//W3C//DTD SVG 1.1//EN" "http://www.w3.org/Graphics/SVG/1.1/DTD/svg11.dtd"><svg xmlns="http://www.w3.org/2000/svg" xmlns:xlink="http://www.w3.org/1999/xlink" version="1.1" id="mdi-toaster-off" width="24" height="24" viewBox="0 0 24 24"><path d="M20.8 22.7L18.1 20H3V13H2V11H3C3 9.9 3.9 9 5 9H7.1L1.1 3L2.4 1.7L22.1 21.4L20.8 22.7M15.3 12.1C15.6 11.5 16.3 11 17 11C18.1 11 19 11.9 19 13C19 13.8 18.6 14.4 17.9 14.7L21 17.8V13H22V11H21C21 9.9 20.1 9 19 9H12.2L15.3 12.1M18 8C17.6 5.8 15.1 4 12 4C10.6 4 9.2 4.4 8.2 5L11.2 8H18Z" /></svg>
